src/com/lilithsthrone/res/statusEffects/combatBonusRabbitMorph.svg

<?xml version="1.0" encoding="UTF-8" standalone="no"?>
<!-- Created with Inkscape (http://www.inkscape.org/) -->

<svg
   xmlns:dc="http://purl.org/dc/elements/1.1/"
   xmlns:cc="http://creativecommons.org/ns#"
   xmlns:rdf="http://www.w3.org/1999/02/22-rdf-syntax-ns#"
   xmlns:svg="http://www.w3.org/2000/svg"
   xmlns="http://www.w3.org/2000/svg"
   xmlns:sodipodi="http://sodipodi.sourceforge.net/DTD/sodipodi-0.dtd"
   xmlns:inkscape="http://www.inkscape.org/namespaces/inkscape"
   width="100%"
   height="100%"
   viewBox="0 0 64.000001 64.000001"
   id="svg4311"
   version="1.1"
   inkscape:version="0.91 r13725"
   sodipodi:docname="combatBonusRabbitMorph.svg">
  <defs
     id="defs4313">
    <inkscape:path-effect
       effect="powerstroke"
       id="path-effect4155"
       is_visible="true"
       offset_points="0.92799346,1.2886104"
       sort_points="true"
       interpolator_type="Linear"
       interpolator_beta="0.2"
       start_linecap_type="zerowidth"
       linejoin_type="round"
       miter_limit="4"
       end_linecap_type="zerowidth"
       cusp_linecap_type="round" />
    <inkscape:path-effect
       effect="powerstroke"
       id="path-effect4151"
       is_visible="true"
       offset_points="0,0.5"
       sort_points="true"
       interpolator_type="CubicBezierJohan"
       interpolator_beta="0.2"
       start_linecap_type="zerowidth"
       linejoin_type="round"
       miter_limit="4"
       end_linecap_type="zerowidth"
       cusp_linecap_type="round" />
    <inkscape:path-effect
       effect="powerstroke"
       id="path-effect4147"
       is_visible="true"
       offset_points="0,0.5"
       sort_points="true"
       interpolator_type="CubicBezierJohan"
       interpolator_beta="0.2"
       start_linecap_type="zerowidth"
       linejoin_type="round"
       miter_limit="4"
       end_linecap_type="zerowidth"
       cusp_linecap_type="round" />
    <inkscape:path-effect
       effect="powerstroke"
       id="path-effect4183"
       is_visible="true"
       offset_points="0.238227,0.51804536"
       sort_points="true"
       interpolator_type="Linear"
       interpolator_beta="0.2"
       start_linecap_type="zerowidth"
       linejoin_type="round"
       miter_limit="4"
       end_linecap_type="zerowidth"
       cusp_linecap_type="round" />
  </defs>
  <sodipodi:namedview
     id="base"
     pagecolor="#ffffff"
     bordercolor="#666666"
     borderopacity="1.0"
     inkscape:pageopacity="0.0"
     inkscape:pageshadow="2"
     inkscape:zoom="7.9195959"
     inkscape:cx="16.962477"
     inkscape:cy="25.446329"
     inkscape:document-units="px"
     inkscape:current-layer="layer5"
     showgrid="false"
     units="px"
     inkscape:window-width="2560"
     inkscape:window-height="1388"
     inkscape:window-x="-8"
     inkscape:window-y="-8"
     inkscape:window-maximized="1"
     showguides="false" />
  <metadata
     id="metadata4316">
    <rdf:RDF>
      <cc:Work
         rdf:about="">
        <dc:format>image/svg+xml</dc:format>
        <dc:type
           rdf:resource="http://purl.org/dc/dcmitype/StillImage" />
        <dc:title></dc:title>
      </cc:Work>
    </rdf:RDF>
  </metadata>
  <g
     inkscape:groupmode="layer"
     id="layer5"
     inkscape:label="Stage5"
     style="display:inline;opacity:1">
    <path
       sodipodi:type="star"
       style="fill:#ff8080;fill-opacity:1;stroke:#000000;stroke-width:0.73031849;stroke-linecap:round;stroke-miterlimit:4;stroke-dasharray:none;stroke-dashoffset:0;stroke-opacity:1"
       id="path4168"
       sodipodi:sides="5"
       sodipodi:cx="1.4285713"
       sodipodi:cy="-9.5714273"
       sodipodi:r1="17.431536"
       sodipodi:r2="14.102408"
       sodipodi:arg1="0.90885469"
       sodipodi:arg2="1.5371732"
       inkscape:flatsided="true"
       inkscape:rounded="0"
       inkscape:randomized="0"
       d="M 12.142857,4.1785731 -8.3375598,4.867448 -15.321516,-14.397712 0.8425794,-26.993111 17.816495,-15.512335 Z"
       inkscape:transform-center-x="0.97927869"
       inkscape:transform-center-y="-3.2456342"
       transform="matrix(1.5645444,0.05692315,-0.03980006,1.6319874,29.685873,48.596329)" />
    <path
       style="display:inline;opacity:1;fill:#ff2a2a;fill-rule:evenodd;stroke:none;stroke-width:1;stroke-linecap:butt;stroke-linejoin:miter;stroke-miterlimit:4;stroke-dasharray:none;stroke-opacity:1"
       d="m 34.809484,12.408529 c -2.408237,0.05924 -6.49867,3.727375 -7.231625,17.531594 -5.129637,1.47849 -11.506744,6.002558 -11.782177,10.153319 -0.115028,1.733446 2.683275,6.447215 7.500929,6.736944 8.626234,0.518776 6.873699,4.722496 7.177313,6.834986 8.991118,0.701181 13.307308,-5.408741 15.425753,-8.560055 -4.964993,-3.707901 -3.228602,-10.707894 -8.884685,-13.896563 6.942396,-5.614717 7.586861,-16.408584 6.234938,-16.636006 -6.012282,-1.011396 -11.172425,7.571655 -11.376385,14.879003 0,0 -1.427265,0.09733 -1.432368,-0.03275 -0.257132,-6.568081 3.28736,-13.327754 6.042724,-15.071216 0.385962,-1.011626 -0.412964,-1.970287 -1.674417,-1.939256 z m -8.776479,21.919832 c 1.144275,-2.99e-4 2.071969,0.927395 2.07167,2.071671 2.99e-4,1.144276 -0.927395,2.07197 -2.07167,2.07167 -1.14372,-4.87e-4 -2.070545,-0.92795 -2.070246,-2.07167 -2.99e-4,-1.14372 0.926526,-2.071183 2.070246,-2.071671 z"
       id="path4166"
       inkscape:connector-curvature="0"
       sodipodi:nodetypes="scsscccscccsccccc" />
    <flowRoot
       xml:space="preserve"
       id="flowRoot4156"
       style="fill:black;stroke:none;stroke-opacity:1;stroke-width:1px;stroke-linejoin:miter;stroke-linecap:butt;fill-opacity:1;font-family:sans-serif;font-style:normal;font-weight:normal;font-size:40px;line-height:125%;letter-spacing:0px;word-spacing:0px"><flowRegion
         id="flowRegion4158"><rect
           id="rect4160"
           width="42.678944"
           height="44.067905"
           x="6.5659914"
           y="11.21953" /></flowRegion><flowPara
         id="flowPara4162" /></flowRoot>    <flowRoot
       xml:space="preserve"
       id="flowRoot4168"
       style="fill:black;stroke:none;stroke-opacity:1;stroke-width:1px;stroke-linejoin:miter;stroke-linecap:butt;fill-opacity:1;font-family:sans-serif;font-style:normal;font-weight:normal;font-size:40px;line-height:125%;letter-spacing:0px;word-spacing:0px"><flowRegion
         id="flowRegion4170"><rect
           id="rect4172"
           width="63.765881"
           height="63.63961"
           x="0.25253814"
           y="-0.27095523" /></flowRegion><flowPara
         id="flowPara4174" /></flowRoot>   
    <path
       style="display:inline;opacity:1;fill:#f9f9f9;fill-opacity:1;fill-rule:evenodd;stroke:none;stroke-width:1px;stroke-linecap:butt;stroke-linejoin:miter;stroke-opacity:1"
       d="M 32.58813,6.8299461 C 43.141652,14.150158 45.68552,16.35403 56.6841,24.88989 47.793699,22.27626 34.541579,9.5048609 32.58813,6.8299461 Z"
       id="path4281-0"
       inkscape:connector-curvature="0"
       sodipodi:nodetypes="ccc" />
    <path
       style="display:inline;opacity:1;fill:#000000;fill-opacity:0.44859811;fill-rule:evenodd;stroke:none;stroke-width:1px;stroke-linecap:butt;stroke-linejoin:miter;stroke-opacity:1"
       d="M 48.528934,55.968492 C 36.350582,56.180178 24.675347,56.047986 16.557409,55.981412 13.168111,46.178694 9.9127758,35.093102 6.3878346,24.118699 11.878755,36.064798 12.7552,43.733966 21.138496,50.327266 c 6.025034,4.738571 15.106093,4.469879 27.390438,5.641226 z"
       id="path4283-0"
       inkscape:connector-curvature="0"
       sodipodi:nodetypes="cccsc" />
  </g>
</svg>

<svg xmlns="http://www.w3.org/2000/svg" viewBox="0 0 64 64">
    <path fill="#ff8080" stroke="#000" stroke-linecap="round" stroke-width=".73" d="M12.143 4.179l-20.48.688-6.985-19.265L.843-26.993l16.973 11.48z" transform="matrix(1.56454 .05692 -.0398 1.63199 29.686 48.596)"/>
    <path fill="#ff2a2a" fill-rule="evenodd" d="M34.81 12.409c-2.409.059-6.5 3.727-7.232 17.531-5.13 1.479-11.507 6.003-11.782 10.153-.115 1.734 2.683 6.448 7.5 6.737 8.627.52 6.874 4.723 7.178 6.835 8.991.702 13.307-5.408 15.426-8.56-4.965-3.708-3.229-10.708-8.885-13.896 6.942-5.615 7.587-16.409 6.235-16.636-6.012-1.012-11.172 7.571-11.376 14.879 0 0-1.428.097-1.433-.033-.257-6.568 3.288-13.328 6.043-15.071.386-1.012-.413-1.97-1.675-1.94zm-8.777 21.92a2.071 2.071 0 1 1 .001 4.142 2.071 2.071 0 0 1-.001-4.143z"/>
    <path fill="#f9f9f9" fill-rule="evenodd" d="M32.588 6.83c10.554 7.32 13.098 9.524 24.096 18.06-8.89-2.614-22.142-15.385-24.096-18.06z"/>
    <path fill-opacity=".449" fill-rule="evenodd" d="M48.529 55.968c-12.178.212-23.854.08-31.972.013-3.389-9.802-6.644-20.888-10.17-31.862 5.492 11.946 6.368 19.615 14.751 26.208 6.026 4.739 15.107 4.47 27.39 5.641z"/>
</svg>
